src/assets/fleet-icons/trash.svg

<svg width="20" height="20" viewBox="0 0 20 20" fill="none" xmlns="http://www.w3.org/2000/svg">
    <path d="M8.41204 8.86583V13.8566M11.588 8.86583V13.8566M7.50463 6.14361V5.2362C7.50463 4.23391 8.31715 3.42139 9.31944 3.42139H10.6806C11.6829 3.42139 12.4954 4.23391 12.4954 5.2362V6.14361M3.875 6.14361H16.125M5.54568 14.9212L4.78241 6.14361H15.2176L14.4543 14.9212C14.3728 15.859 13.5877 16.5788 12.6463 16.5788H7.35367C6.41231 16.5788 5.62723 15.859 5.54568 14.9212Z" stroke="currentColor" stroke-linecap="round" stroke-linejoin="round"/>
</svg>

<svg width="20" height="20" fill="none" xmlns="http://www.w3.org/2000/svg">
    <path
        d="M8.412 8.866v4.99m3.176-4.99v4.99M7.505 6.145v-.908c0-1.002.812-1.815 1.814-1.815h1.362c1.002 0 1.814.813 1.814 1.815v.908m-8.62 0h12.25M5.545 14.92l-.763-8.777h10.436l-.764 8.777a1.815 1.815 0 0 1-1.808 1.658H7.354c-.942 0-1.727-.72-1.808-1.658Z"
        stroke="currentColor" stroke-linecap="round" stroke-linejoin="round" />
</svg>
